icons/guidance-icons/manoeuvers-sdk/left-roundabout-exit10.svg

<svg width="80" height="80" viewBox="0 0 80 80" fill="none" xmlns="http://www.w3.org/2000/svg">
<g clip-path="url(#clip0_15464_42603)">
<path d="M66.1599 27.51C66.1599 26.67 66.1599 25.84 66.0399 25.01H60.3999C60.2085 23.1173 59.7576 21.2598 59.0599 19.49L63.8199 16.74C63.123 15.2232 62.2825 13.7766 61.3099 12.42L56.6599 15.1C55.5322 13.5177 54.1854 12.1036 52.6599 10.9L55.2799 6.36001C53.9186 5.39207 52.4688 4.55502 50.9499 3.86001L48.3699 8.30001C46.5542 7.49065 44.631 6.94836 42.6599 6.69001V1.64001C41.8399 1.56001 41.0099 1.51001 40.1599 1.51001C39.3099 1.51001 38.4899 1.56001 37.6599 1.64001V6.64001C35.6715 6.86766 33.7273 7.38655 31.8899 8.18001L29.3899 3.86001C27.8731 4.55693 26.4265 5.39743 25.0699 6.37001L27.5799 10.73C26.0002 11.9451 24.6056 13.3835 23.4399 15L18.9999 12.42C18.0273 13.7766 17.1868 15.2232 16.4899 16.74L20.9999 19.34C20.2624 21.1492 19.7908 23.0556 19.5999 25H14.2899C14.2099 25.83 14.1599 26.66 14.1599 27.5C14.1599 28.34 14.2099 29.18 14.2899 30H19.7499C20.0239 31.8906 20.566 33.7325 21.3599 35.47L16.5099 38.27C17.1976 39.7938 18.0315 41.2473 18.9999 42.61L23.9999 39.75C25.155 41.2007 26.5004 42.489 27.9999 43.58L25.0699 48.66C26.4265 49.6326 27.8731 50.4731 29.3899 51.17L32.3899 46.01C35.2599 47.1676 38.3553 47.6581 41.4426 47.4444C44.5298 47.2308 47.5282 46.3186 50.2113 44.7767C52.8945 43.2348 55.1923 41.1035 56.9313 38.5437C58.6703 35.9839 59.8051 33.0625 60.2499 30H65.9999C66.1199 29.19 66.1599 28.36 66.1599 27.51ZM39.9999 42.5C36.9343 42.5 33.9375 41.591 31.3886 39.8878C28.8396 38.1846 26.8529 35.7639 25.6798 32.9316C24.5066 30.0993 24.1997 26.9828 24.7977 23.9761C25.3958 20.9694 26.872 18.2076 29.0398 16.0399C31.2075 13.8721 33.9693 12.3959 36.976 11.7978C39.9827 11.1998 43.0993 11.5067 45.9315 12.6799C48.7638 13.853 51.1845 15.8397 52.8877 18.3887C54.5909 20.9376 55.4999 23.9344 55.4999 27C55.4973 31.1101 53.8634 35.051 50.9571 37.9572C48.0509 40.8635 44.11 42.4974 39.9999 42.5Z" fill="#C3CDDE" fill-opacity="0.35"/>
<path d="M72.9999 33V56H49.9999L50.3599 49.89L62.6099 50.24L56.4899 44.12C54.9881 42.6299 53.9528 40.7346 53.5106 38.6657C53.0684 36.5968 53.2384 34.4439 53.9999 32.47C55.0946 29.6712 55.3233 26.608 54.6565 23.6776C53.9896 20.7472 52.4578 18.0847 50.2597 16.0352C48.0617 13.9858 45.2986 12.6438 42.3288 12.1833C39.359 11.7228 36.3193 12.165 33.6038 13.4526C30.8883 14.7402 28.6222 16.8138 27.0992 19.4047C25.5762 21.9955 24.8666 24.9841 25.0623 27.983C25.258 30.982 26.35 33.853 28.1968 36.2239C30.0437 38.5948 32.5601 40.3563 35.4199 41.28C37.625 42.0014 39.5456 43.4015 40.907 45.2802C42.2685 47.1589 43.001 49.4199 42.9999 51.74V80H36.9999V51.74C36.997 50.6873 36.662 49.6624 36.0425 48.8113C35.423 47.9602 34.5507 47.3263 33.5499 47C29.5448 45.7084 26.0202 43.2433 23.433 39.9244C20.8458 36.6055 19.3154 32.5858 19.0403 28.3867C18.7652 24.1875 19.758 20.0025 21.89 16.3744C24.022 12.7462 27.1948 9.84231 30.9971 8.03915C34.7994 6.23599 39.0557 5.61676 43.2142 6.26177C47.3726 6.90678 51.2414 8.78627 54.3188 11.6565C57.3962 14.5268 59.5403 18.2554 60.473 22.3589C61.4058 26.4624 61.0842 30.7515 59.5499 34.67C59.2181 35.5599 59.152 36.527 59.3597 37.4538C59.5674 38.3805 60.04 39.2269 60.7199 39.89L66.9999 46.17L67.2299 45.94L66.8699 33.36L72.9999 33ZM35.9999 18.48H32.7499L26.9199 22L28.5399 24.49L32.3799 22.13V36H35.9999V18.48ZM45.1799 18.14C40.9599 18.14 38.7499 21.39 38.7499 27.26C38.7499 33.13 40.9599 36.42 45.1799 36.42C49.3999 36.42 51.6199 33.11 51.6199 27.26C51.6199 21.41 49.4099 18.14 45.1799 18.14ZM45.1799 20.89C46.9999 20.89 47.8299 22.4 47.8299 27.26C47.8299 32.12 46.9999 33.63 45.1799 33.63C43.3599 33.63 42.5499 32 42.5499 27.26C42.5499 22.52 43.3599 20.89 45.1799 20.89Z" fill="white"/>
</g>
<defs>
<clipPath id="clip0_15464_42603">
<rect width="80" height="80" fill="white"/>
</clipPath>
</defs>
</svg>

<svg xmlns="http://www.w3.org/2000/svg" viewBox="0 0 80 80"><path d="M66.16,27.51c0-.84,0-1.67-.12-2.5H60.4a20.74,20.74,0,0,0-1.34-5.52l4.76-2.75a26.16,26.16,0,0,0-2.51-4.32L56.66,15.1a20.52,20.52,0,0,0-4-4.2l2.62-4.54a26.5,26.5,0,0,0-4.33-2.5L48.37,8.3a20.6,20.6,0,0,0-5.71-1.61V1.64c-.82-.08-1.65-.13-2.5-.13s-1.67.05-2.5.13v5a20.41,20.41,0,0,0-5.77,1.54l-2.5-4.32a26.16,26.16,0,0,0-4.32,2.51l2.51,4.36A20.55,20.55,0,0,0,23.44,15L19,12.42a26.16,26.16,0,0,0-2.51,4.32L21,19.34A20.23,20.23,0,0,0,19.6,25H14.29c-.08.83-.13,1.66-.13,2.5s.05,1.68.13,2.5h5.46a20.1,20.1,0,0,0,1.61,5.47l-4.85,2.8A25.84,25.84,0,0,0,19,42.61L24,39.75a20.62,20.62,0,0,0,4,3.83l-2.93,5.08a26.16,26.16,0,0,0,4.32,2.51l3-5.16A20.43,20.43,0,0,0,60.25,30H66C66.12,29.19,66.16,28.36,66.16,27.51ZM40,42.5A15.5,15.5,0,1,1,55.5,27,15.51,15.51,0,0,1,40,42.5Z" style="fill:#d1def4;opacity:0.35000000000000003"/><path d="M73,33V56H50l.36-6.11,12.25.35-6.12-6.12A10.89,10.89,0,0,1,54,32.47a15,15,0,1,0-18.58,8.81A11,11,0,0,1,43,51.74V80H37V51.74A5,5,0,0,0,33.55,47a21,21,0,1,1,26-12.33,4.9,4.9,0,0,0,1.17,5.22L67,46.17l.23-.23-.36-12.58ZM36,18.48H32.75L26.92,22l1.62,2.49,3.84-2.36V36H36Zm9.18-.34c-4.22,0-6.43,3.25-6.43,9.12s2.21,9.16,6.43,9.16,6.44-3.31,6.44-9.16S49.41,18.14,45.18,18.14Zm0,2.75c1.82,0,2.65,1.51,2.65,6.37s-.83,6.37-2.65,6.37S42.55,32,42.55,27.26,43.36,20.89,45.18,20.89Z" style="fill:#fff"/></svg>
